X: 1
T: Tri Godini Kate
O: trad. Makedonia
R: lesnoto
S: http://km.mk/traditional-macedonian-folk-songs-volume-1-and-2.pdf
M: 7/8
L: 1/8
K: D
% - - - - - - - - - - - - - - - -
[| "A"c3 "G"d2 B2 | "D"A3 AG F2 | F2G "G"B2 BA | "D"A3- A4- | A3- A4 |
w: 1.~Tri go-di-ni Ka-*te bo-*len le-*\vzam,*
w: 2.~Ti ne doj-de Ka-*te da* me vi-*di\vs,*
w: 3.~Po-nu-di-ca Ka-*te da mi do-ne-*si\vs,*
w: 4.~Sre-de zi-ma Ka-*te lju-*be-ni-*ca,*
w: 5.~Se-ga doj-de Ka-*te ar-*no sto-*ri,*
w: 6.~Ot-vo-ri go Ka-*te pen-*d\vze-re-*to,*
w: 7.~Da go vi-di\vs Ka-*te e-*ze-re-*to.*
w: 7.~Ka-ko fr-la Ka-*te dal-*ge dal-*gi,*
w: 8.~Ta-ka i-gra Ka-*te mo-e-vo sr-*ce.*
%
"A"c3 "G"d2 B2 | "D"A3 AG F2 | "G" B2A "A"AG GF | "D"F3- F4- | F3- F4 |]
w: 1.~ti ne doj-de Ka-*te da* me-*vi-*di\vs.*
w: 2.~po-nu-di-ca Ka-*te da mi do-*ne-*si\vs.*
w: 3.~sre-de zi-ma Ka-*te lju-*be-*ni-*ca.*
w: 4.~sre-de le-to Ka-*te \vzol-*ta* du-*nja.*
w: 5.~ot-vo-ri go Ka-*te pen-*d\vze-*re-*to.*
w: 6.~da go vi-di\vs Ka-*te e-*ze-*re-*to.*
w: 7.~ka-ko fr-la Ka-*te dal-*gi* dal-*gi.*
w: 8.~moj-vo sr-ce Ka-*te of* za* te-*be.*
